static/img/kroki/17167e4f4e56a60c63d65a611693a9ee.svg

<?xml version="1.0" encoding="us-ascii" standalone="no"?><svg xmlns="http://www.w3.org/2000/svg" xmlns:xlink="http://www.w3.org/1999/xlink" contentStyleType="text/css" height="374px" preserveAspectRatio="none" style="width:356px;height:374px;" version="1.1" viewBox="0 0 356 374" width="356px" zoomAndPan="magnify"><defs/><g><!--class account--><g id="elem_account"><rect codeLine="23" fill="#3D176E" height="39.7891" id="account" rx="2.5" ry="2.5" style="stroke:#000D19;stroke-width:0.5;" width="107" x="7" y="167.79"/><ellipse cx="22" cy="187.6845" fill="#ADD1B2" rx="11" ry="11" style="stroke:#181818;stroke-width:1.0;"/><path d="M24.9688,193.3252 Q24.3906,193.622 23.75,193.7627 Q23.1094,193.9189 22.4063,193.9189 Q19.9063,193.9189 18.5781,192.2783 Q17.2656,190.622 17.2656,187.497 Q17.2656,184.372 18.5781,182.7158 Q19.9063,181.0595 22.4063,181.0595 Q23.1094,181.0595 23.75,181.2158 Q24.4063,181.372 24.9688,181.6689 L24.9688,184.3877 Q24.3438,183.8095 23.75,183.5439 Q23.1563,183.2627 22.5313,183.2627 Q21.1875,183.2627 20.5,184.3408 Q19.8125,185.4033 19.8125,187.497 Q19.8125,189.5908 20.5,190.6689 Q21.1875,191.7314 22.5313,191.7314 Q23.1563,191.7314 23.75,191.4658 Q24.3438,191.1845 24.9688,190.6064 L24.9688,193.3252 Z " fill="#000000"/><text fill="#D9B8FF" font-family="Helvetica" font-size="17" lengthAdjust="spacing" textLength="65" x="41" y="193.5698">account</text></g><!--class azure_subscription--><g id="elem_azure_subscription"><rect codeLine="26" fill="#3D176E" height="39.7891" id="azure_subscription" rx="2.5" ry="2.5" style="stroke:#000D19;stroke-width:0.5;" width="197" x="56" y="328.58"/><ellipse cx="71" cy="348.4745" fill="#ADD1B2" rx="11" ry="11" style="stroke:#181818;stroke-width:1.0;"/><path d="M73.9688,354.1152 Q73.3906,354.412 72.75,354.5527 Q72.1094,354.7089 71.4063,354.7089 Q68.9063,354.7089 67.5781,353.0683 Q66.2656,351.412 66.2656,348.287 Q66.2656,345.162 67.5781,343.5058 Q68.9063,341.8495 71.4063,341.8495 Q72.1094,341.8495 72.75,342.0058 Q73.4063,342.162 73.9688,342.4589 L73.9688,345.1777 Q73.3438,344.5995 72.75,344.3339 Q72.1563,344.0527 71.5313,344.0527 Q70.1875,344.0527 69.5,345.1308 Q68.8125,346.1933 68.8125,348.287 Q68.8125,350.3808 69.5,351.4589 Q70.1875,352.5214 71.5313,352.5214 Q72.1563,352.5214 72.75,352.2558 Q73.3438,351.9745 73.9688,351.3964 L73.9688,354.1152 Z " fill="#000000"/><text fill="#D9B8FF" font-family="Helvetica" font-size="17" lengthAdjust="spacing" textLength="155" x="90" y="354.3598">azure_subscription</text></g><!--class microsoft_resource--><g id="elem_microsoft_resource"><rect codeLine="29" fill="#3D176E" height="39.7891" id="microsoft_resource" rx="2.5" ry="2.5" style="stroke:#000D19;stroke-width:0.5;" width="200" x="149.5" y="167.79"/><ellipse cx="164.5" cy="187.6845" fill="#ADD1B2" rx="11" ry="11" style="stroke:#181818;stroke-width:1.0;"/><path d="M167.4688,193.3252 Q166.8906,193.622 166.25,193.7627 Q165.6094,193.9189 164.9063,193.9189 Q162.4063,193.9189 161.0781,192.2783 Q159.7656,190.622 159.7656,187.497 Q159.7656,184.372 161.0781,182.7158 Q162.4063,181.0595 164.9063,181.0595 Q165.6094,181.0595 166.25,181.2158 Q166.9063,181.372 167.4688,181.6689 L167.4688,184.3877 Q166.8438,183.8095 166.25,183.5439 Q165.6563,183.2627 165.0313,183.2627 Q163.6875,183.2627 163,184.3408 Q162.3125,185.4033 162.3125,187.497 Q162.3125,189.5908 163,190.6689 Q163.6875,191.7314 165.0313,191.7314 Q165.6563,191.7314 166.25,191.4658 Q166.8438,191.1845 167.4688,190.6064 L167.4688,193.3252 Z " fill="#000000"/><text fill="#D9B8FF" font-family="Helvetica" font-size="17" lengthAdjust="spacing" textLength="158" x="183.5" y="193.5698">microsoft_resource</text></g><!--class resource--><g id="elem_resource"><rect codeLine="32" fill="#3D176E" height="39.7891" id="resource" rx="2.5" ry="2.5" style="stroke:#000D19;stroke-width:0.5;" width="113" x="98" y="7"/><ellipse cx="113" cy="26.8945" fill="#ADD1B2" rx="11" ry="11" style="stroke:#181818;stroke-width:1.0;"/><path d="M115.9688,32.5352 Q115.3906,32.832 114.75,32.9727 Q114.1094,33.1289 113.4063,33.1289 Q110.9063,33.1289 109.5781,31.4883 Q108.2656,29.832 108.2656,26.707 Q108.2656,23.582 109.5781,21.9258 Q110.9063,20.2695 113.4063,20.2695 Q114.1094,20.2695 114.75,20.4258 Q115.4063,20.582 115.9688,20.8789 L115.9688,23.5977 Q115.3438,23.0195 114.75,22.7539 Q114.1563,22.4727 113.5313,22.4727 Q112.1875,22.4727 111.5,23.5508 Q110.8125,24.6133 110.8125,26.707 Q110.8125,28.8008 111.5,29.8789 Q112.1875,30.9414 113.5313,30.9414 Q114.1563,30.9414 114.75,30.6758 Q115.3438,30.3945 115.9688,29.8164 L115.9688,32.5352 Z " fill="#000000"/><text fill="#D9B8FF" font-family="Helvetica" font-size="17" lengthAdjust="spacing" textLength="71" x="132" y="32.7798">resource</text></g><!--reverse link resource to account--><g id="link_resource_account"><path codeLine="35" d="M133.9895,62.5388 C115.9195,93.0588 89.97,136.9 71.88,167.46 " fill="none" id="resource-backto-account" style="stroke:#FFAF37;stroke-width:2.0;"/><polygon fill="none" points="143.16,47.05,128.8266,59.482,139.1525,65.5956,143.16,47.05" style="stroke:#FFAF37;stroke-width:2.0;"/></g><!--reverse link account to azure_subscription--><g id="link_account_azure_subscription"><path codeLine="36" d="M81.0105,223.3288 C99.0805,253.8488 125.03,297.69 143.12,328.25 " fill="none" id="account-backto-azure_subscription" style="stroke:#FFAF37;stroke-width:2.0;"/><polygon fill="none" points="71.84,207.84,75.8475,226.3856,86.1734,220.272,71.84,207.84" style="stroke:#FFAF37;stroke-width:2.0;"/></g><!--reverse link microsoft_resource to azure_subscription--><g id="link_microsoft_resource_azure_subscription"><path codeLine="37" d="M228.7984,223.2865 C210.5384,253.8065 184.28,297.69 166,328.25 " fill="none" id="microsoft_resource-backto-azure_subscription" style="stroke:#FFAF37;stroke-width:2.0;"/><polygon fill="none" points="238.04,207.84,223.6496,220.2059,233.9473,226.367,238.04,207.84" style="stroke:#FFAF37;stroke-width:2.0;"/></g><!--reverse link resource to microsoft_resource--><g id="link_resource_microsoft_resource"><path codeLine="38" d="M175.2016,62.4965 C193.4616,93.0165 219.72,136.9 238,167.46 " fill="none" id="resource-backto-microsoft_resource" style="stroke:#FFAF37;stroke-width:2.0;"/><polygon fill="none" points="165.96,47.05,170.0527,65.577,180.3504,59.4159,165.96,47.05" style="stroke:#FFAF37;stroke-width:2.0;"/></g><!--SRC=[XP1FQm8n4CNl-HG1pu9MMXLwKQ6q5ocrTyac4mtk9ilCR4NRVlTgTILk_7FCUx_CUpDBPq12KV965b1aW2HevNofK1LoX1ZMav07b2rhbUtrc-PBy7mNcAe2v2laNy1EgoRnkNHwvO58FaJMMEdL0aFbpM4ye_Aqiy1pH4roHJHYHfTL354PCym6rZR9vj1MptJxJv1W0GtW4UbqEgOxR29tesxkVI9cRWko6nzj6XYIcad4FtMpvPw8IYQBrlxLZk_A6ESNyZ7IFWwTq0EUwREbCc6zfwtAAOuX1eJ0cn8coLOm71ZRlmY_NOE5tfzEAgrt7ijl8NvhQLiXpAdAIAChsGKVkuNJ62XOdYDGg513x9vhfzVpJxlThhD4dNbKapXn8UCgso3Ih-8F]--></g></svg>

<svg xmlns="http://www.w3.org/2000/svg" width="356" height="374" viewBox="0 0 356 374"><rect width="107" height="39.789" x="7" y="167.79" fill="#3D176E" rx="2.5" ry="2.5" style="stroke:#000d19;stroke-width:.5"/><circle cx="22" cy="187.685" r="11" fill="#ADD1B2" style="stroke:#181818;stroke-width:1"/><path d="M24.969 193.325q-.578.297-1.219.438-.64.156-1.344.156-2.5 0-3.828-1.64-1.312-1.657-1.312-4.782t1.312-4.781q1.328-1.656 3.828-1.656.703 0 1.344.156.656.156 1.219.453v2.719q-.625-.578-1.219-.844-.594-.281-1.219-.281-1.343 0-2.031 1.078-.687 1.062-.687 3.156t.687 3.172q.688 1.062 2.031 1.062.625 0 1.219-.265.594-.281 1.219-.86z"/><text x="41" y="193.57" fill="#D9B8FF" font-family="Helvetica" font-size="17" textLength="65">account</text><rect width="197" height="39.789" x="56" y="328.58" fill="#3D176E" rx="2.5" ry="2.5" style="stroke:#000d19;stroke-width:.5"/><circle cx="71" cy="348.474" r="11" fill="#ADD1B2" style="stroke:#181818;stroke-width:1"/><path d="M73.969 354.115q-.578.297-1.219.438-.64.156-1.344.156-2.5 0-3.828-1.64-1.312-1.657-1.312-4.782t1.312-4.781q1.328-1.656 3.828-1.656.703 0 1.344.156.656.156 1.219.453v2.719q-.625-.579-1.219-.844-.594-.281-1.219-.281-1.344 0-2.031 1.078-.687 1.062-.687 3.156t.687 3.172q.688 1.062 2.031 1.062.625 0 1.219-.265.594-.281 1.219-.86z"/><text x="90" y="354.36" fill="#D9B8FF" font-family="Helvetica" font-size="17" textLength="155">azure_subscription</text><rect width="200" height="39.789" x="149.5" y="167.79" fill="#3D176E" rx="2.5" ry="2.5" style="stroke:#000d19;stroke-width:.5"/><circle cx="164.5" cy="187.685" r="11" fill="#ADD1B2" style="stroke:#181818;stroke-width:1"/><path d="M167.469 193.325q-.578.297-1.219.438-.64.156-1.344.156-2.5 0-3.828-1.64-1.312-1.657-1.312-4.782t1.312-4.781q1.328-1.656 3.828-1.656.703 0 1.344.156.656.156 1.219.453v2.719q-.625-.578-1.219-.844-.594-.281-1.219-.281-1.344 0-2.031 1.078-.687 1.062-.687 3.156t.687 3.172q.688 1.062 2.031 1.062.625 0 1.219-.265.594-.281 1.219-.86z"/><text x="183.5" y="193.57" fill="#D9B8FF" font-family="Helvetica" font-size="17" textLength="158">microsoft_resource</text><rect width="113" height="39.789" x="98" y="7" fill="#3D176E" rx="2.5" ry="2.5" style="stroke:#000d19;stroke-width:.5"/><circle cx="113" cy="26.895" r="11" fill="#ADD1B2" style="stroke:#181818;stroke-width:1"/><path d="M115.969 32.535q-.578.297-1.219.438-.64.156-1.344.156-2.5 0-3.828-1.64-1.312-1.657-1.312-4.782t1.312-4.781q1.328-1.656 3.828-1.656.703 0 1.344.156.656.156 1.219.453v2.719q-.625-.578-1.219-.844-.594-.281-1.219-.281-1.344 0-2.031 1.078-.687 1.062-.687 3.156t.687 3.172q.688 1.062 2.031 1.062.625 0 1.219-.265.594-.281 1.219-.86z"/><text x="132" y="32.78" fill="#D9B8FF" font-family="Helvetica" font-size="17" textLength="71">resource</text><g fill="none"><path d="M133.99 62.539C115.92 93.059 89.97 136.9 71.88 167.46" style="stroke:#ffaf37;stroke-width:2"/><path d="m143.16 47.05-14.333 12.432 10.326 6.114z" style="stroke:#ffaf37;stroke-width:2"/></g><path fill="none" d="M81.01 223.329c18.07 30.52 44.02 74.361 62.11 104.921M71.84 207.84l4.007 18.546 10.326-6.114zm156.958 15.447C210.538 253.807 184.28 297.69 166 328.25m72.04-120.41-14.39 12.366 10.297 6.161zM175.202 62.497C193.462 93.017 219.72 136.9 238 167.46M165.96 47.05l4.093 18.527 10.297-6.161z" style="stroke:#ffaf37;stroke-width:2"/></svg>
